packages/dnb-eufemia/assets/icons/savings_account_out_medium.svg

<svg width="24" height="24" viewBox="0 0 24 24" fill="none" xmlns="http://www.w3.org/2000/svg">
<path d="M3.73739 7.0125L4.41933 6.70033L4.41926 6.70016L3.73739 7.0125ZM4.33006 5.5849L4.57921 6.2923L4.57922 6.2923L4.33006 5.5849ZM7.87841 5.8026L7.53988 6.47186C7.75749 6.58193 8.01502 6.57933 8.23036 6.4649L7.87841 5.8026ZM19.6019 22.5833L20.3034 22.8486C20.3093 22.8331 20.3147 22.8174 20.3195 22.8015L19.6019 22.5833ZM15.242 22.4083L14.4985 22.5066C14.5004 22.5211 14.5028 22.5356 14.5056 22.55L15.242 22.4083ZM15.0682 21.0925L15.8117 20.9942C15.8098 20.9799 15.8075 20.9657 15.8048 20.9515L15.0682 21.0925ZM11.301 21.0925L10.5645 20.9508C10.5597 20.9755 10.5562 21.0006 10.5539 21.0257L11.301 21.0925ZM11.1834 22.4083L11.92 22.5493C11.9247 22.5247 11.9282 22.5 11.9304 22.4751L11.1834 22.4083ZM6.88636 22.5219L6.16179 22.7155C6.16436 22.7251 6.16712 22.7347 6.17007 22.7442L6.88636 22.5219ZM6.00886 19.2385L6.73343 19.0449C6.73093 19.0355 6.72825 19.0262 6.72539 19.017L6.00886 19.2385ZM5.35227 18.5625L5.58703 17.8502L5.58674 17.8501L5.35227 18.5625ZM2.93352 10.2786L3.03064 11.0223L3.03181 11.0222L2.93352 10.2786ZM3.54716 9.92552L4.12352 10.4054L4.1244 10.4044L3.54716 9.92552ZM4.1071 9.25052L3.52999 8.77152L3.52986 8.77167L4.1071 9.25052ZM4.25284 8.13854L4.93485 7.8265L4.93479 7.82638L4.25284 8.13854ZM11.25 2.25C11.25 2.66421 11.5858 3 12 3C12.4142 3 12.75 2.66421 12.75 2.25H11.25ZM14.25 2.25C14.25 2.66421 14.5858 3 15 3C15.4142 3 15.75 2.66421 15.75 2.25H14.25ZM10.5 7.5C10.0858 7.5 9.75 7.83579 9.75 8.25C9.75 8.66421 10.0858 9 10.5 9V7.5ZM15.75 9C16.1642 9 16.5 8.66421 16.5 8.25C16.5 7.83579 16.1642 7.5 15.75 7.5V9ZM20.8009 21.2182C20.9214 20.8219 20.6978 20.4029 20.3015 20.2824C19.9052 20.1619 19.4862 20.3855 19.3657 20.7818L20.8009 21.2182ZM20.86 8.47638C21.1231 8.79631 21.5957 8.84237 21.9157 8.57928C22.2356 8.31618 22.2817 7.84355 22.0186 7.52362L20.86 8.47638ZM15.5 13.75C15.0858 13.75 14.75 14.0858 14.75 14.5C14.75 14.9142 15.0858 15.25 15.5 15.25V13.75ZM19.9697 16.4697C19.6768 16.7626 19.6768 17.2374 19.9697 17.5303C20.2626 17.8232 20.7374 17.8232 21.0303 17.5303L19.9697 16.4697ZM23 14.5L23.5303 15.0303C23.8232 14.7374 23.8232 14.2626 23.5303 13.9697L23 14.5ZM21.0303 11.4697C20.7374 11.1768 20.2626 11.1768 19.9697 11.4697C19.6768 11.7626 19.6768 12.2374 19.9697 12.5303L21.0303 11.4697ZM4.41926 6.70016C4.34128 6.52993 4.43267 6.34392 4.57921 6.2923L4.0809 4.87749C3.07995 5.23004 2.62008 6.37424 3.05552 7.32484L4.41926 6.70016ZM4.57922 6.2923C4.98342 6.14993 5.41475 6.07031 5.84267 6.07031V4.57031C5.2315 4.57031 4.63192 4.68341 4.08089 4.87749L4.57922 6.2923ZM5.84267 6.07031C6.45531 6.07031 7.03551 6.21673 7.53988 6.47186L8.21694 5.13335C7.50631 4.77389 6.69458 4.57031 5.84267 4.57031V6.07031ZM8.23036 6.4649C9.65655 5.707 11.6602 5.25 13.5341 5.25V3.75C11.4562 3.75 9.20322 4.24926 7.52646 5.14031L8.23036 6.4649ZM18.9004 22.318C18.8566 22.4338 18.7524 22.5 18.6477 22.5V24C19.3888 24 20.0435 23.5359 20.3034 22.8486L18.9004 22.318ZM18.6477 22.5H16.2459V24H18.6477V22.5ZM16.2459 22.5C16.126 22.5 16.0065 22.4119 15.9785 22.2666L14.5056 22.55C14.6658 23.3829 15.388 24 16.2459 24V22.5ZM15.9856 22.3101L15.8117 20.9942L14.3246 21.1907L14.4985 22.5066L15.9856 22.3101ZM15.8048 20.9515C15.6454 20.1182 14.9229 19.5003 14.0644 19.5003V21.0003C14.1846 21.0003 14.3038 21.0886 14.3315 21.2334L15.8048 20.9515ZM14.0644 19.5003H12.3048V21.0003H14.0644V19.5003ZM12.3048 19.5003C11.4464 19.5003 10.7246 20.1185 10.5645 20.9508L12.0375 21.2342C12.0655 21.0883 12.1855 21.0003 12.3048 21.0003V19.5003ZM10.5539 21.0257L10.4363 22.3416L11.9304 22.4751L12.048 21.1592L10.5539 21.0257ZM10.4467 22.2674C10.4191 22.4117 10.3003 22.5 10.1795 22.5V24C11.0376 24 11.7604 23.3831 11.92 22.5493L10.4467 22.2674ZM10.1795 22.5H7.86153V24H10.1795V22.5ZM7.86153 22.5C7.75188 22.5 7.6422 22.427 7.60266 22.2996L6.17007 22.7442C6.3995 23.4834 7.07834 24 7.86153 24V22.5ZM7.61093 22.3282L6.73343 19.0449L5.28429 19.4322L6.16179 22.7155L7.61093 22.3282ZM6.72539 19.017C6.55653 18.4709 6.13859 18.032 5.58703 17.8502L5.11752 19.2748C5.19493 19.3003 5.26278 19.3645 5.29234 19.4601L6.72539 19.017ZM5.58674 17.8501C5.01205 17.6609 3.92955 17.1822 3.00576 16.5332C2.54503 16.2095 2.15306 15.8637 1.88271 15.5156C1.61138 15.1663 1.5 14.8645 1.5 14.6094H0C0 15.3113 0.305061 15.9298 0.698103 16.4358C1.09212 16.9431 1.61247 17.3875 2.14346 17.7606C3.20312 18.505 4.42176 19.0458 5.1178 19.2749L5.58674 17.8501ZM1.5 14.6094V12.712H0V14.6094H1.5ZM1.5 12.712C1.5 11.8647 2.15122 11.1372 3.03064 11.0223L2.8364 9.53496C1.25105 9.74199 0 11.0707 0 12.712H1.5ZM3.03181 11.0222C3.48547 10.9622 3.86422 10.7168 4.12352 10.4054L2.9708 9.44562C2.91612 9.51128 2.86226 9.53154 2.83523 9.53511L3.03181 11.0222ZM4.1244 10.4044L4.68434 9.72937L3.52986 8.77167L2.96992 9.44667L4.1244 10.4044ZM4.68421 9.72953C5.12663 9.1965 5.22214 8.45441 4.93485 7.8265L3.57084 8.45058C3.62002 8.55809 3.60201 8.68475 3.52999 8.77152L4.68421 9.72953ZM4.93479 7.82638L4.41933 6.70033L3.05544 7.32467L3.57089 8.45071L4.93479 7.82638ZM12.75 2.25C12.75 1.83571 13.0857 1.5 13.5 1.5V0C12.2573 0 11.25 1.00729 11.25 2.25H12.75ZM13.5 1.5C13.9143 1.5 14.25 1.83571 14.25 2.25H15.75C15.75 1.00729 14.7427 0 13.5 0V1.5ZM10.5 9H15.75V7.5H10.5V9ZM19.3657 20.7818L18.8844 22.3652L20.3195 22.8015L20.8009 21.2182L19.3657 20.7818ZM13.5341 5.25C16.6522 5.25 19.2765 6.55087 20.86 8.47638L22.0186 7.52362C20.1303 5.22745 17.0685 3.75 13.5341 3.75V5.25ZM21.0303 17.5303L23.5303 15.0303L22.4697 13.9697L19.9697 16.4697L21.0303 17.5303ZM23.5303 13.9697L21.0303 11.4697L19.9697 12.5303L22.4697 15.0303L23.5303 13.9697ZM15.5 15.25H23V13.75H15.5V15.25Z" fill="black"/>
</svg>

<svg width="24" height="24" viewBox="0 0 24 24" fill="none" xmlns="http://www.w3.org/2000/svg"><path d="M3.737 7.013 4.42 6.7l-.682.313Zm.593-1.428.25.707-.25-.707Zm3.548.218-.338.669a.75.75 0 0 0 .69-.007l-.352-.662Zm11.724 16.78.701.266a.706.706 0 0 0 .017-.047l-.718-.219Zm-4.36-.175-.744.099a.713.713 0 0 0 .008.043l.736-.142Zm-.174-1.316.744-.098a.774.774 0 0 0-.007-.043l-.737.142Zm-3.767 0-.736-.141a.754.754 0 0 0-.011.075l.747.067Zm-.118 1.316.737.141a.744.744 0 0 0 .01-.074l-.747-.067Zm-4.297.114-.724.194.008.028.716-.222Zm-.877-3.284.724-.193a.7.7 0 0 0-.008-.028l-.716.221Zm-.657-.675.235-.713-.235.712Zm-2.418-8.284.097.743-.097-.743Zm.613-.353.577.48v-.002l-.577-.478Zm.56-.675-.577-.48.577.48Zm.146-1.112.682-.312-.682.312ZM11.25 2.25a.75.75 0 0 0 1.5 0h-1.5Zm3 0a.75.75 0 0 0 1.5 0h-1.5ZM10.5 7.5a.75.75 0 0 0 0 1.5V7.5ZM15.75 9a.75.75 0 0 0 0-1.5V9Zm5.05 12.218a.75.75 0 0 0-1.434-.436l1.435.436Zm.06-12.742a.75.75 0 0 0 1.159-.952l-1.159.952ZM15.5 13.75a.75.75 0 0 0 0 1.5v-1.5Zm4.47 2.72a.75.75 0 1 0 1.06 1.06l-1.06-1.06ZM23 14.5l.53.53a.75.75 0 0 0 0-1.06l-.53.53Zm-1.97-3.03a.75.75 0 1 0-1.06 1.06l1.06-1.06ZM4.42 6.7a.3.3 0 0 1 .16-.408l-.5-1.415c-1 .353-1.46 1.497-1.024 2.448L4.419 6.7Zm.16-.408a3.828 3.828 0 0 1 1.263-.222v-1.5c-.612 0-1.211.113-1.762.307l.498 1.415Zm1.263-.222c.612 0 1.193.147 1.697.402l.677-1.339a5.261 5.261 0 0 0-2.374-.563v1.5Zm2.387.395c1.427-.758 3.43-1.215 5.304-1.215v-1.5c-2.078 0-4.33.5-6.008 1.39l.704 1.325ZM18.9 22.318a.273.273 0 0 1-.252.182V24c.74 0 1.396-.464 1.655-1.151l-1.403-.531Zm-.252.182h-2.402V24h2.402v-1.5Zm-2.402 0a.278.278 0 0 1-.267-.233l-1.473.283c.16.833.882 1.45 1.74 1.45v-1.5Zm-.26-.19-.174-1.316-1.487.197.174 1.316 1.487-.197Zm-.181-1.358a1.778 1.778 0 0 0-1.74-1.452V21c.12 0 .239.089.267.233l1.473-.282Zm-1.74-1.452h-1.76V21h1.76v-1.5Zm-1.76 0c-.859 0-1.58.619-1.74 1.45l1.473.284a.279.279 0 0 1 .267-.234v-1.5Zm-1.751 1.526-.118 1.316 1.494.133.118-1.316-1.494-.133Zm-.107 1.241a.277.277 0 0 1-.267.233V24c.858 0 1.58-.617 1.74-1.45l-1.473-.283Zm-.267.233H7.862V24h2.318v-1.5Zm-2.318 0a.275.275 0 0 1-.26-.2l-1.432.444c.23.74.908 1.256 1.692 1.256v-1.5Zm-.251-.172-.878-3.283-1.449.387.878 3.284 1.449-.388Zm-.886-3.311a1.776 1.776 0 0 0-1.138-1.167l-.47 1.425c.078.025.146.09.175.185l1.433-.443ZM5.587 17.85a11 11 0 0 1-2.581-1.317c-.461-.324-.853-.67-1.123-1.017-.272-.35-.383-.652-.383-.907H0c0 .702.305 1.32.698 1.827.394.507.914.951 1.445 1.325 1.06.744 2.279 1.285 2.975 1.514l.469-1.425ZM1.5 14.61v-1.898H0v1.897h1.5Zm0-1.898c0-.847.651-1.575 1.53-1.69l-.194-1.487C1.251 9.742 0 11.071 0 12.712h1.5Zm1.532-1.69c.453-.06.832-.305 1.092-.617l-1.153-.96c-.055.066-.109.087-.136.09l.197 1.487Zm1.092-.618.56-.675-1.154-.957-.56.675 1.154.957Zm.56-.674a1.807 1.807 0 0 0 .25-1.904l-1.363.625a.307.307 0 0 1-.041.32l1.154.959Zm.25-1.904L4.42 6.7l-1.364.625.516 1.126 1.364-.625ZM12.75 2.25a.75.75 0 0 1 .75-.75V0a2.25 2.25 0 0 0-2.25 2.25h1.5Zm.75-.75a.75.75 0 0 1 .75.75h1.5A2.25 2.25 0 0 0 13.5 0v1.5Zm-3 7.5h5.25V7.5H10.5V9Zm8.866 11.782-.482 1.583 1.436.437.48-1.584-1.434-.436ZM13.534 5.25c3.118 0 5.742 1.3 7.326 3.226l1.159-.952c-1.889-2.297-4.95-3.774-8.485-3.774v1.5Zm7.496 12.28 2.5-2.5-1.06-1.06-2.5 2.5 1.06 1.06Zm2.5-3.56-2.5-2.5-1.06 1.06 2.5 2.5 1.06-1.06Zm-8.03 1.28H23v-1.5h-7.5v1.5Z" fill="#000"/></svg>
